svg/color/itc.svg

<svg height="32" viewBox="0 0 32 32" width="32" xmlns="http://www.w3.org/2000/svg"><g fill="none" fill-rule="evenodd"><circle cx="16" cy="16" fill="#102044" r="16"/><path d="m24.2480567 19.3509175c.4502234.1723217.7484397.6002131.7519374 1.0789068.0013046.4074383-.2146638.7851912-.5678338.9932053-.3531699.2080141-.7908925.2152794-1.1508802.0191024l-6.0289264 3.29c.0038365.0294374.005333.0591286.0044758.0887989.0135956.6375497-.4963949 1.165319-1.1390956 1.1788056s-1.174734-.4924165-1.1883296-1.1299662l-2.9406122-1.6827395h-.0671373v-.0355196l-3.09726585-1.7715384c-.19303047.1333621-.42271218.2046592-.6579452.2042375-.58084878.0013032-1.07372102-.4224737-1.15491824-.9930111s.27414801-1.1131028.83265936-1.2713614v-6.6155194c-.46506645-.1317454-.79950428-.5351116-.8400644-1.0132034-.04056013-.4780919.22121386-.9312316.65754227-1.1382283.43632841-.2069966.95624078-.1246933 1.30595238.2067354l5.97074078-3.41875842c-.0089236-.06176519-.0134108-.12408143-.0134274-.18647773 0-.63754976.5210119-1.15438595 1.1637126-1.15438595s1.1637126.51683619 1.1637126 1.15438595c.0001653.08213294-.0088413.16403134-.0268549.24419702l5.8275146 3.33883933c.2128122-.1925207.4907765-.2986951.7787923-.2974764.5619948-.001136 1.0445132.396305 1.1466893.9445056.102176.5482005-.205187 1.0905127-.7304383 1.2887873zm-4.1177522-2.6062483v5.6831308l2.6720631-1.4563023c-.0878482-.1672829-.1338985-.3530532-.1342745-.5416734.0006743-.5485484.3894056-1.0212985.9309701-1.1321862v-6.57112c-.5434385-.1088961-.9345088-.5822152-.9354459-1.1321862.0007521-.1065834.0158037-.2125931.0447582-.3152362l-2.5333129-1.45186229v5.28353569h-.0044758l-.0089516.3463158-.1432262.0665992-.9130668.5461133.8727845.5194737.1387503.0665992.0044758.0621592.0044758.0266397zm-4.0416634-8.43589731c-.3317052-.00011415-.6475971-.14064163-.8683087-.38627529l-2.649684 1.51846151v5.61209169l1.0876237.6482321 1.374076-.8080702c-.0106021-.0646192-.0165848-.1299012-.0179033-.1953576 0-.5639863.4608952-1.0211876 1.0294381-1.0211876s1.0294381.4572013 1.0294381 1.0211876c.0001672.0520914-.0043262.1040948-.0134275.1553981l1.4188342.8435897 1.0518172-.6304723v-5.60765171l-2.6138775-1.49626178c-.217375.22186183-.5161403.34681818-.8280263.34631578zm.6803243 8.42257751 1.0831479-.6526721-1.0876237-.6482321c-.391444.3812116-1.0154652.3909753-1.4188343.0221997l-1.0697204.6215925 1.0652446.6349122c.4045938-.3744607 1.0352214-.3646555 1.4277859.0221998zm-7.5283254 4.1469095 2.6810148 1.5362213v-5.4922132l.0044758-.1775978.0447582-.0443995.2237909-.1331983.8325021-.4883941-.7519374-.4439946-.3491138-.1775978v-.2131174h-.0044758v-5.43449388l-2.62730499 1.50514168c.15443573.6006853-.20047319 1.2143396-.80117137 1.3852631v6.6243994c.31813359.0920856.58159827.3143538.72431065.6110545s.15113341.6396859.02315091.9429266zm6.8480011 2.792726c.3651308-.0003569.7088338.1709409.9264942.4617544l2.4706514-1.3497436v-5.7364102l-1.007059-.5993927-1.4188342.8524696c.0091055.0498082.0136001.100338.0134275.1509582 0 .5639863-.4608952 1.0211876-1.0294381 1.0211876s-1.0294381-.4572013-1.0294381-1.0211876c.0013084-.0610417.0072934-.1218963.0179033-.1820378l-1.3919793-.8258299-1.0741963.6260323v5.7142105l2.5243612 1.4474224c.210028-.3479748.5892535-.5605284.9981074-.5594332z" fill="#fff" fill-rule="nonzero"/></g></svg>

<svg xmlns="http://www.w3.org/2000/svg" width="32" height="32" viewBox="0 0 32 32">
  <g fill="none" fill-rule="evenodd">
    <circle cx="16" cy="16" r="16" fill="#102044"/>
    <path fill="#FFF" fill-rule="nonzero" d="M24.2480567,19.3509175 C24.6982801,19.5232392 24.9964964,19.9511306 24.9999941,20.4298243 C25.0012987,20.8372626 24.7853303,21.2150155 24.4321603,21.4230296 C24.0789904,21.6310437 23.6412678,21.638309 23.2812801,21.442132 L17.2523537,24.732132 C17.2561902,24.7615694 17.2576867,24.7912606 17.2568295,24.8209309 C17.2704251,25.4584806 16.7604346,25.9862499 16.1177339,25.9997365 C15.4750332,26.0132231 14.9429999,25.50732 14.9294043,24.8697703 L11.9887921,23.1870308 L11.9216548,23.1870308 L11.9216548,23.1515112 L8.82438895,21.3799728 C8.63135848,21.5133349 8.40167677,21.584632 8.16644375,21.5842103 C7.58559497,21.5855135 7.09272273,21.1617366 7.01152551,20.5911992 C6.93032829,20.0206618 7.28567352,19.4780964 7.84418487,19.3198378 L7.84418487,12.7043184 C7.37911842,12.572573 7.04468059,12.1692068 7.00412047,11.691115 C6.96356034,11.2130231 7.22533433,10.7598834 7.66166274,10.5528867 C8.09799115,10.3458901 8.61790352,10.4281934 8.96761512,10.7596221 L14.9383559,7.34086368 C14.9294323,7.27909849 14.9249451,7.21678225 14.9249285,7.15438595 C14.9249285,6.51683619 15.4459404,6 16.0886411,6 C16.7313418,6 17.2523537,6.51683619 17.2523537,7.15438595 C17.252519,7.23651889 17.2435124,7.31841729 17.2254988,7.39858297 L23.0530134,10.7374223 C23.2658256,10.5449016 23.5437899,10.4387272 23.8318057,10.4399459 C24.3938005,10.4388099 24.8763189,10.8362509 24.978495,11.3844515 C25.080671,11.932652 24.773308,12.4749642 24.2480567,12.6732388 L24.2480567,19.3509175 Z M20.1303045,16.7446692 L20.1303045,22.4278 L22.8023676,20.9714977 C22.7145194,20.8042148 22.6684691,20.6184445 22.6680931,20.4298243 C22.6687674,19.8812759 23.0574987,19.4085258 23.5990632,19.2976381 L23.5990632,12.7265181 C23.0556247,12.617622 22.6645544,12.1443029 22.6636173,11.5943319 C22.6643694,11.4877485 22.679421,11.3817388 22.7083755,11.2790957 L20.1750626,9.82723341 L20.1750626,15.1107691 L20.1705868,15.1107691 L20.1616352,15.4570849 L20.018409,15.5236841 L19.1053422,16.0697974 L19.9781267,16.5892711 L20.116877,16.6558703 L20.1213528,16.7180295 L20.1258286,16.7446692 L20.1303045,16.7446692 Z M16.0886411,8.30877189 C15.7569359,8.30865774 15.441044,8.16813026 15.2203324,7.9224966 L12.5706484,9.44095811 L12.5706484,15.0530498 L13.6582721,15.7012819 L15.0323481,14.8932117 C15.021746,14.8285925 15.0157633,14.7633105 15.0144448,14.6978541 C15.0144448,14.1338678 15.47534,13.6766665 16.0438829,13.6766665 C16.6124258,13.6766665 17.073321,14.1338678 17.073321,14.6978541 C17.0734882,14.7499455 17.0689948,14.8019489 17.0598935,14.8532522 L18.4787277,15.6968419 L19.5305449,15.0663696 L19.5305449,9.45871789 L16.9166674,7.96245611 C16.6992924,8.18431794 16.4005271,8.30927429 16.0886411,8.30877189 Z M16.7689654,16.7313494 L17.8521133,16.0786773 L16.7644896,15.4304452 C16.3730456,15.8116568 15.7490244,15.8214205 15.3456553,15.4526449 L14.2759349,16.0742374 L15.3411795,16.7091496 C15.7457733,16.3346889 16.3764009,16.3444941 16.7689654,16.7313494 Z M9.24064,20.8782589 L11.9216548,22.4144802 L11.9216548,16.922267 L11.9261306,16.7446692 L11.9708888,16.7002697 L12.1946797,16.5670714 L13.0271818,16.0786773 L12.2752444,15.6346827 L11.9261306,15.4570849 L11.9261306,15.2439675 L11.9216548,15.2439675 L11.9216548,9.80947362 L9.29434981,11.3146153 C9.44878554,11.9153006 9.09387662,12.5289549 8.49317844,12.6998784 L8.49317844,19.3242778 C8.81131203,19.4163634 9.07477671,19.6386316 9.21748909,19.9353323 C9.36020147,20.232033 9.3686225,20.5750182 9.24064,20.8782589 Z M16.0886411,23.6709849 C16.4537719,23.670628 16.7974749,23.8419258 17.0151353,24.1327393 L19.4857867,22.7829957 L19.4857867,17.0465855 L18.4787277,16.4471928 L17.0598935,17.2996624 C17.068999,17.3494706 17.0734936,17.4000004 17.073321,17.4506206 C17.073321,18.0146069 16.6124258,18.4718082 16.0438829,18.4718082 C15.47534,18.4718082 15.0144448,18.0146069 15.0144448,17.4506206 C15.0157532,17.3895789 15.0217382,17.3287243 15.0323481,17.2685828 L13.6403688,16.4427529 L12.5661725,17.0687852 L12.5661725,22.7829957 L15.0905337,24.2304181 C15.3005617,23.8824433 15.6797872,23.6698897 16.0886411,23.6709849 Z"/>
  </g>
</svg>
